Sweet-Rainbow/icons/preferences-system-power.svg

<?xml version="1.0" encoding="UTF-8" standalone="no"?>
<!-- Generator: Gravit.io -->

<svg
   xmlns:dc="http://purl.org/dc/elements/1.1/"
   xmlns:cc="http://creativecommons.org/ns#"
   xmlns:rdf="http://www.w3.org/1999/02/22-rdf-syntax-ns#"
   xmlns:svg="http://www.w3.org/2000/svg"
   xmlns="http://www.w3.org/2000/svg"
   xmlns:sodipodi="http://sodipodi.sourceforge.net/DTD/sodipodi-0.dtd"
   xmlns:inkscape="http://www.inkscape.org/namespaces/inkscape"
   style="isolation:isolate"
   viewBox="0 0 36 36"
   width="48"
   height="48"
   version="1.1"
   id="svg11"
   sodipodi:docname="preferences-system-power.svg"
   inkscape:version="0.92.4 (5da689c313, 2019-01-14)">
  <metadata
     id="metadata17">
    <rdf:RDF>
      <cc:Work
         rdf:about="">
        <dc:format>image/svg+xml</dc:format>
        <dc:type
           rdf:resource="http://purl.org/dc/dcmitype/StillImage" />
        <dc:title></dc:title>
      </cc:Work>
    </rdf:RDF>
  </metadata>
  <defs
     id="defs15" />
  <sodipodi:namedview
     pagecolor="#ffffff"
     bordercolor="#666666"
     borderopacity="1"
     objecttolerance="10"
     gridtolerance="10"
     guidetolerance="10"
     inkscape:pageopacity="0"
     inkscape:pageshadow="2"
     inkscape:window-width="640"
     inkscape:window-height="480"
     id="namedview13"
     showgrid="false"
     inkscape:zoom="29.365243"
     inkscape:cx="25.325443"
     inkscape:cy="32"
     inkscape:current-layer="svg11"
     units="px" />
  <linearGradient
     id="_lgradient_29"
     x1="-0.014458464"
     y1="0.009839246"
     x2="1.0164566"
     y2="1.072293"
     gradientTransform="matrix(46.808,0,0,47,0.564,0.5)"
     gradientUnits="userSpaceOnUse">
    <stop
       offset="0%"
       stop-opacity="1"
       style="stop-color:rgb(249,212,35)"
       id="stop2" />
    <stop
       offset="51.56237565086822%"
       stop-opacity="1"
       style="stop-color:rgb(255,78,80)"
       id="stop4" />
    <stop
       offset="99.1304347826087%"
       stop-opacity="1"
       style="stop-color:rgb(138,35,135)"
       id="stop6" />
  </linearGradient>
  <g
     id="g825"
     transform="matrix(0.76595696,0,0,0.76595696,-0.35893112,-0.38295552)">
    <path
       id="path9"
       d="m 21.908,11.825 v 0 c 0.734,-1.347 1.33,-2.447 1.331,-2.456 v 0 C 23.24,9.36 23.446,9.389 23.7,9.433 v 0 l -0.547,11.76 8.071,0.265 c 1.532,0.051 2.184,1.186 1.455,2.534 l -6.59,12.181 -1.329,2.441 v 0 l 0.014,-0.137 0.07,-11.672 -8.071,-0.265 C 15.241,26.49 14.59,25.355 15.319,24.007 Z M 32.917,6.952 v 0 C 31.873,6.403 31.47,5.109 32.019,4.064 v 0 C 32.568,3.02 33.862,2.617 34.907,3.166 v 0 c 4.449,2.342 8.042,6.053 10.235,10.577 v 0 c 0.519,1.063 0.078,2.345 -0.984,2.861 v 0 c -1.063,0.517 -2.347,0.074 -2.866,-0.989 v 0 C 39.495,11.904 36.564,8.877 32.917,6.952 Z M 23.817,4.5 v 0 c 1.103,-0.006 1.995,-0.906 1.99,-2.01 v 0 C 25.801,1.386 24.9,0.494 23.797,0.5 v 0 c -5.76,0.03 -11.31,2.18 -15.59,6.03 -4.28,3.86 -7,9.15 -7.63,14.88 v 0 c -0.122,1.098 0.671,2.089 1.77,2.21 v 0 c 1.098,0.121 2.088,-0.672 2.21,-1.77 v 0 c 0.52,-4.75 2.78,-9.15 6.33,-12.34 3.55,-3.2 8.15,-4.98 12.93,-5.01 z M 5.737,31 v 0 C 5.339,29.968 4.179,29.453 3.147,29.85 v 0 c -1.033,0.397 -1.548,1.558 -1.15,2.59 v 0 c 1.91,4.93 5.42,9.08 9.97,11.78 v 0 c 0.949,0.563 2.177,0.249 2.74,-0.7 v 0 c 0.563,-0.949 0.249,-2.177 -0.7,-2.74 v 0 C 10.227,38.54 7.317,35.1 5.737,31 Z m 17.57,12.49 v 0 c -1.104,-0.017 -2.014,0.866 -2.03,1.97 v 0 c -0.017,1.104 0.866,2.013 1.97,2.03 v 0 l 0.66,0.01 c 0.01,0 0.02,0 0.03,0 5.91,0 11.61,-2.23 15.95,-6.24 4.34,-4.01 7.02,-9.52 7.48,-15.41 v 0 c 0.082,-1.098 -0.742,-2.062 -1.84,-2.15 v 0 c -1.099,-0.088 -2.062,0.736 -2.15,1.84 v 0 c -0.38,4.88 -2.6,9.45 -6.2,12.78 -3.6,3.33 -8.32,5.18 -13.22,5.18 z"
       style="fill:url(#_lgradient_29);fill-rule:evenodd"
       inkscape:connector-curvature="0" />
  </g>
</svg>

<?xml version="1.0" encoding="UTF-8" standalone="no"?><!-- Generator: Gravit.io --><svg xmlns="http://www.w3.org/2000/svg" xmlns:xlink="http://www.w3.org/1999/xlink" style="isolation:isolate" viewBox="0 0 48 48" width="48pt" height="48pt"><linearGradient id="_lgradient_29" x1="-0.014458464773922156" y1="0.009839246119734024" x2="1.0164565923220248" y2="1.0722930524759795" gradientTransform="matrix(46.808,0,0,47,0.564,0.5)" gradientUnits="userSpaceOnUse"><stop offset="0%" stop-opacity="1" style="stop-color:rgb(249,212,35)"/><stop offset="51.56237565086822%" stop-opacity="1" style="stop-color:rgb(255,78,80)"/><stop offset="99.1304347826087%" stop-opacity="1" style="stop-color:rgb(138,35,135)"/></linearGradient><path d=" M 21.908 11.825 L 21.908 11.825 C 22.642 10.478 23.238 9.378 23.239 9.369 L 23.239 9.369 C 23.24 9.36 23.446 9.389 23.7 9.433 L 23.7 9.433 L 23.153 21.193 L 31.224 21.458 C 32.756 21.509 33.408 22.644 32.679 23.992 L 26.089 36.173 L 24.76 38.614 L 24.76 38.614 L 24.774 38.477 L 24.844 26.805 L 16.773 26.54 C 15.241 26.49 14.59 25.355 15.319 24.007 L 21.908 11.825 L 21.908 11.825 L 21.908 11.825 L 21.908 11.825 Z  M 32.917 6.952 L 32.917 6.952 C 31.873 6.403 31.47 5.109 32.019 4.064 L 32.019 4.064 C 32.568 3.02 33.862 2.617 34.907 3.166 L 34.907 3.166 C 39.356 5.508 42.949 9.219 45.142 13.743 L 45.142 13.743 C 45.661 14.806 45.22 16.088 44.158 16.604 L 44.158 16.604 C 43.095 17.121 41.811 16.678 41.292 15.615 L 41.292 15.615 C 39.495 11.904 36.564 8.877 32.917 6.952 L 32.917 6.952 L 32.917 6.952 L 32.917 6.952 Z  M 23.817 4.5 L 23.817 4.5 C 24.92 4.494 25.812 3.594 25.807 2.49 L 25.807 2.49 C 25.801 1.386 24.9 0.494 23.797 0.5 L 23.797 0.5 C 18.037 0.53 12.487 2.68 8.207 6.53 C 3.927 10.39 1.207 15.68 0.577 21.41 L 0.577 21.41 C 0.455 22.508 1.248 23.499 2.347 23.62 L 2.347 23.62 C 3.445 23.741 4.435 22.948 4.557 21.85 L 4.557 21.85 C 5.077 17.1 7.337 12.7 10.887 9.51 C 14.437 6.31 19.037 4.53 23.817 4.5 L 23.817 4.5 L 23.817 4.5 Z  M 5.737 31 L 5.737 31 C 5.339 29.968 4.179 29.453 3.147 29.85 L 3.147 29.85 C 2.114 30.247 1.599 31.408 1.997 32.44 L 1.997 32.44 C 3.907 37.37 7.417 41.52 11.967 44.22 L 11.967 44.22 C 12.916 44.783 14.144 44.469 14.707 43.52 L 14.707 43.52 C 15.27 42.571 14.956 41.343 14.007 40.78 L 14.007 40.78 C 10.227 38.54 7.317 35.1 5.737 31 L 5.737 31 Z  M 23.307 43.49 L 23.307 43.49 C 22.203 43.473 21.293 44.356 21.277 45.46 L 21.277 45.46 C 21.26 46.564 22.143 47.473 23.247 47.49 L 23.247 47.49 L 23.907 47.5 C 23.917 47.5 23.927 47.5 23.937 47.5 C 29.847 47.5 35.547 45.27 39.887 41.26 C 44.227 37.25 46.907 31.74 47.367 25.85 L 47.367 25.85 C 47.449 24.752 46.625 23.788 45.527 23.7 L 45.527 23.7 C 44.428 23.612 43.465 24.436 43.377 25.54 L 43.377 25.54 C 42.997 30.42 40.777 34.99 37.177 38.32 C 33.577 41.65 28.857 43.5 23.957 43.5 L 23.307 43.49 Z " fill-rule="evenodd" fill="url(#_lgradient_29)"/></svg>
